X:1
T:Title
%%score { ( 1 3 ) | ( 2 4 ) }
L:1/8
M:3/4
K:Eb
V:1 treble nm="Grand Piano"
V:3 treble 
V:2 bass 
V:4 bass 
V:1
 z2 z2[Q:1/4=118] [B,GB]2 | [B,GB]2 [C_G=A]2 [B,=GB]2 | [Ac]2 B2 E2 | [EG]6 | [DF]4 [EG]2 | %5
 [FA]2 [=EG]2 [FA]2 | [GB]4 [B,FA]2 | [B,EG]6- |[M:2/4] [B,EG]4 |[M:1/4] [B,GB]2 | %10
[M:3/4] [B,GB]2 [C_G=A]2 [B,=GB]2 | [Ac]2 B2 E2 | [EG]6 | [DF]4 [EG]2 | [FA]2 [EG]2 [FA]2 | %15
 [EG]4 [DF]2 | E6- | E4 z2 | c4 c2 | [ce]2 [Bd]2 [Ac]2 | [GB]6 | [EG]6 | [DF]4 [EG]2 | %23
 [FA]2 [Ac]2 [DAB]2 | [EGB]6 | [EG]4 z2 | [EAc]4 [EAc]2 | [ce]2 [Bd]2 [Ac]2 | [GB]6 | %29
 [Ge]4 [G,E][A,EF] | [B,EG]2 [EB]2 [G,E]2 | [B,EG]4 [A,DF]2 | [G,E]6- |[M:2/4] [G,E]4 |] %34
V:2
 z2 z2 E,2 | E,2 E,2 E,2 | z2 G2 [E,G,B,]2 | [B,,B,]6 | [B,,B,]4 [B,,B,]2 | %5
 [B,,B,]2 [B,,B,]2 [B,,B,]2 | [B,,B,]4 D,2 | E,6- |[M:2/4] E,4 |[M:1/4] E,2 |[M:3/4] E,2 E,2 E,2 | %11
 z2 G2 [E,G,B,]2 | [B,,B,]6 | [B,,B,]4 [B,,B,]2 | [B,,B,]2 [B,,B,]2 [B,,B,]2 | [B,,B,]4 [B,,A,]2 | %16
 [E,G,]6- | [E,G,]4 z2 | [A,EA]4 [A,EA]2 | [A,C]2 [A,C]2 [A,E]2 | [E,E]6 | [E,B,]6 | %22
 [B,,B,]4 [B,,B,]2 | [B,,B,]2 [B,,B,]2 B,,2 | z6 | B,4 z2 | A,4 A,2 | [A,C]2 [A,C]2 [A,E]2 | %28
 [E,E]6 | [E,B,]4 E,D, | z2 G,2 E,2 | B,,4 B,,2 | E,6- |[M:2/4] E,4 |] %34
V:3
 x6 | x6 | E4 z2 | x6 | x6 | x6 | x6 | x6 |[M:2/4] x4 |[M:1/4] x2 |[M:3/4] x6 | E4 z2 | x6 | x6 | %14
 x6 | x6 | x6 | x6 | x6 | x6 | x6 | x6 | x6 | x6 | x6 | x6 | x6 | x6 | x6 | x6 | x6 | x6 | x6 | %33
[M:2/4] x4 |] %34
V:4
 x6 | x6 | E,4 z2 | x6 | x6 | x6 | x6 | x6 |[M:2/4] x4 |[M:1/4] x2 |[M:3/4] x6 | E,4 z2 | x6 | x6 | %14
 x6 | x6 | x6 | x6 | x6 | x6 | x6 | x6 | x6 | x6 | E,6- | E,4 z2 | x6 | x6 | x6 | x6 | E,4 z2 | %31
 x6 | x6 |[M:2/4] x4 |] %34

